icons/svg/landuse_colored/garden.svg

<?xml version="1.0" encoding="UTF-8" standalone="no"?>
<!-- Created with Inkscape (http://www.inkscape.org/) -->

<svg
   xmlns:dc="http://purl.org/dc/elements/1.1/"
   xmlns:cc="http://creativecommons.org/ns#"
   xmlns:rdf="http://www.w3.org/1999/02/22-rdf-syntax-ns#"
   xmlns:svg="http://www.w3.org/2000/svg"
   xmlns="http://www.w3.org/2000/svg"
   xmlns:sodipodi="http://sodipodi.sourceforge.net/DTD/sodipodi-0.dtd"
   xmlns:inkscape="http://www.inkscape.org/namespaces/inkscape"
   version="1.0"
   width="580"
   height="580"
   id="svg2"
   sodipodi:version="0.32"
   inkscape:version="0.91 r13725"
   sodipodi:docname="garden.svg"
   inkscape:output_extension="org.inkscape.output.svg.inkscape">
  <metadata
     id="metadata10">
    <rdf:RDF>
      <cc:Work
         rdf:about="">
        <dc:format>image/svg+xml</dc:format>
        <dc:type
           rdf:resource="http://purl.org/dc/dcmitype/StillImage" />
        <cc:license
           rdf:resource="http://web.resource.org/cc/PublicDomain" />
        <dc:language>en</dc:language>
        <dc:title />
      </cc:Work>
    </rdf:RDF>
  </metadata>
  <sodipodi:namedview
     inkscape:window-height="1006"
     inkscape:window-width="1920"
     inkscape:pageshadow="2"
     inkscape:pageopacity="0.0"
     guidetolerance="10.0"
     gridtolerance="10.0"
     objecttolerance="10.0"
     borderopacity="1.0"
     bordercolor="#666666"
     pagecolor="#ffffff"
     id="base"
     showgrid="false"
     inkscape:zoom="0.50000002"
     inkscape:cx="15.695254"
     inkscape:cy="312.43906"
     inkscape:window-x="1920"
     inkscape:window-y="0"
     inkscape:current-layer="svg2"
     showguides="true"
     inkscape:guide-bbox="true"
     inkscape:window-maximized="1" />
  <defs
     id="defs4">
    <inkscape:perspective
       sodipodi:type="inkscape:persp3d"
       inkscape:vp_x="0 : 290 : 1"
       inkscape:vp_y="0 : 1000 : 0"
       inkscape:vp_z="580 : 290 : 1"
       inkscape:persp3d-origin="290 : 193.33333 : 1"
       id="perspective12" />
    <style
       type="text/css"
       id="style6">
   
    .fil0 {fill:#EF7900}
   
  </style>
    <inkscape:perspective
       id="perspective6807"
       inkscape:persp3d-origin="29.116032 : 19.410688 : 1"
       inkscape:vp_z="58.232063 : 29.116032 : 1"
       inkscape:vp_y="0 : 1000 : 0"
       inkscape:vp_x="0 : 29.116032 : 1"
       sodipodi:type="inkscape:persp3d" />
    <inkscape:perspective
       id="perspective6954"
       inkscape:persp3d-origin="290 : 193.33333 : 1"
       inkscape:vp_z="580 : 290 : 1"
       inkscape:vp_y="0 : 1000 : 0"
       inkscape:vp_x="0 : 290 : 1"
       sodipodi:type="inkscape:persp3d" />
    <inkscape:perspective
       id="perspective2541"
       inkscape:persp3d-origin="240 : 160 : 1"
       inkscape:vp_z="480 : 240 : 1"
       inkscape:vp_y="0 : 1000 : 0"
       inkscape:vp_x="0 : 240 : 1"
       sodipodi:type="inkscape:persp3d" />
    <inkscape:perspective
       id="perspective2750"
       inkscape:persp3d-origin="215 : 143.33333 : 1"
       inkscape:vp_z="430 : 215 : 1"
       inkscape:vp_y="0 : 1000 : 0"
       inkscape:vp_x="0 : 215 : 1"
       sodipodi:type="inkscape:persp3d" />
    <inkscape:perspective
       id="perspective2830"
       inkscape:persp3d-origin="0.5 : 0.33333333 : 1"
       inkscape:vp_z="1 : 0.5 : 1"
       inkscape:vp_y="0 : 1000 : 0"
       inkscape:vp_x="0 : 0.5 : 1"
       sodipodi:type="inkscape:persp3d" />
    <inkscape:perspective
       id="perspective3648"
       inkscape:persp3d-origin="0.5 : 0.33333333 : 1"
       inkscape:vp_z="1 : 0.5 : 1"
       inkscape:vp_y="0 : 1000 : 0"
       inkscape:vp_x="0 : 0.5 : 1"
       sodipodi:type="inkscape:persp3d" />
    <inkscape:perspective
       id="perspective3675"
       inkscape:persp3d-origin="0.5 : 0.33333333 : 1"
       inkscape:vp_z="1 : 0.5 : 1"
       inkscape:vp_y="0 : 1000 : 0"
       inkscape:vp_x="0 : 0.5 : 1"
       sodipodi:type="inkscape:persp3d" />
    <inkscape:perspective
       id="perspective3736"
       inkscape:persp3d-origin="0.5 : 0.33333333 : 1"
       inkscape:vp_z="1 : 0.5 : 1"
       inkscape:vp_y="0 : 1000 : 0"
       inkscape:vp_x="0 : 0.5 : 1"
       sodipodi:type="inkscape:persp3d" />
  </defs>
  <g
     id="g1327">
    <path
       d="M 66.275,1.768 C 24.94,1.768 1.704,23.139 1.704,66.804 L 1.704,516.927 C 1.704,557.771 22.598,579.156 63.896,579.156 L 515.92,579.156 C 557.227,579.156 578.149,558.84 578.149,516.927 L 578.149,66.804 C 578.149,24.203 557.227,1.768 514.627,1.768 C 514.624,1.768 66.133,1.625 66.275,1.768 z"
       style="fill:#111111;stroke:#eeeeee;stroke-width:3.40799999"
       id="path1329" />
  </g>
  <path
     inkscape:connector-curvature="0"
     style="fill:#ffffff;fill-opacity:1"
     d="m 119.64017,490.49731 c 0,0 14.94401,6.73979 22.48258,6.54053 36.54457,-0.95291 113.08084,-35.77205 110.97676,-143.38911 -56.6334,29.74368 -101.68253,72.87245 -111.27631,100.46406 z"
     id="path3"
     sodipodi:nodetypes="ccccc" />
  <path
     inkscape:connector-curvature="0"
     style="fill:#ffffff;fill-opacity:1"
     d="m 121.44083,460.26874 -1.09573,36.60451 c -36.378166,0 -77.122379,-21.48419 -87.257008,-55.38242 -8.670185,-29.03832 -6.839627,-64.86841 -6.839627,-64.86841 0,0 68.399673,35.35888 95.192365,83.64632 z"
     id="path5"
     sodipodi:nodetypes="ccccc" />
  <rect
     style="fill:#ffffff;fill-opacity:1"
     x="117.16059"
     y="318.98987"
     width="24.962141"
     height="178.04593"
     id="rect7" />
  <path
     inkscape:connector-curvature="0"
     d="m 219.66192,263.86593 c 26.50009,-24.69026 26.74711,-48.21618 22.0679,-63.88198 -6.3078,-20.9454 -24.75529,-35.3495 -50.5222,-39.2805 -3.27387,-7.83805 -9.77702,-20.17969 -20.66491,-28.76451 -8.6668,-6.83353 -19.09541,-10.48562 -30.07037,-10.55282 -29.56146,-0.52608 -46.188764,22.87804 -52.828973,35.08736 -26.219221,1.40293 -46.927188,15.9192 -55.989144,39.65839 -8.158982,22.64513 -2.656416,45.55875 15.060465,63.56388 -6.308884,25.64761 0.21823,48.20874 18.261061,62.43504 18.011719,14.20175 41.408911,15.31585 64.818271,3.27262 22.20574,14.26987 47.51324,14.12564 67.08526,-0.74144 18.34312,-14.19146 26.17256,-35.13902 22.78264,-60.79604 z m -103.89508,-3.59284 c -13.05927,-10.29688 -14.85636,-29.78436 -4.01984,-43.52802 10.8365,-13.74365 30.20551,-16.54219 43.26479,-6.2453 13.05928,10.29689 14.85637,29.78434 4.01985,43.528 -10.83651,13.74366 -30.21175,16.53731 -43.2648,6.24532 z"
     id="path11"
     style="fill:#ffffff;fill-opacity:1;stroke:none" />
  <path
     inkscape:connector-curvature="0"
     style="fill:#ffffff;fill-opacity:1"
     d="m 412.71278,482.89209 c 0,0 22.13125,12.26209 33.29546,11.89959 54.12054,-1.73371 68.94664,-52.16596 116.83358,-137.5424 -56.79078,17.27993 -65.06511,30.2934 -117.27719,74.96527 z"
     id="path3-7"
     sodipodi:nodetypes="ccccc" />
  <path
     inkscape:connector-curvature="0"
     style="fill:#ffffff;fill-opacity:1"
     d="m 413.76378,450.31146 -1.31107,44.18076 c -45.58133,0 -67.14002,-21.92658 -79.83856,-74.10631 -10.86362,-44.69881 -27.9509,-82.4845 -27.9509,-82.4845 0,0 75.52966,38.08093 109.10053,112.41005 z"
     id="path5-4"
     sodipodi:nodetypes="ccccc" />
  <rect
     style="fill:#ffffff;fill-opacity:1"
     x="409.04065"
     y="274.13705"
     width="36.967583"
     height="220.65463"
     id="rect7-8" />
  <path
     inkscape:connector-curvature="0"
     style="fill:#ffffff;fill-opacity:1"
     d="m 470.50196,116.19561 c 1.63229,27.23509 -3.68266,62.90234 -8.14165,79.0574 0.48771,-70.62525 -25.61928,-94.53475 -34.81595,-110.248509 0,0.063 -0.01,0.126086 -0.0199,0.189135 0,-0.06301 -0.01,-0.126087 -0.0199,-0.189135 -9.19667,15.713759 -35.30366,39.623259 -34.81595,110.248509 -4.459,-16.15506 -9.77396,-51.82231 -8.14164,-79.0574 0,0 -41.6438,27.88129 -41.6438,101.15438 0,61.59417 37.88153,104.07019 84.60139,104.07019 0.01,-0.0315 0.01,-0.0473 0.0199,-0.0788 0,0.0315 0.01,0.0473 0.0199,0.0788 46.71986,0 84.60137,-42.46026 84.60137,-104.07019 0,-73.27309 -41.64377,-101.15438 -41.64377,-101.15438 z"
     id="path9" />
</svg>

<svg width="580" height="580" viewBox="0 0 580 580" fill="none" xmlns="http://www.w3.org/2000/svg">
<g clip-path="url(#clip0)">
<path d="M66.275 1.768C24.94 1.768 1.704 23.139 1.704 66.804V516.927C1.704 557.771 22.598 579.156 63.896 579.156H515.92C557.227 579.156 578.149 558.84 578.149 516.927V66.804C578.149 24.203 557.227 1.768 514.627 1.768C514.624 1.768 66.133 1.625 66.275 1.768Z" fill="#111111" stroke="#EEEEEE" stroke-width="3.408"/>
<path d="M119.64 490.497C119.64 490.497 134.584 497.237 142.123 497.038C178.667 496.085 255.204 461.266 253.1 353.649C196.466 383.392 151.417 426.521 141.823 454.113L119.64 490.497Z" fill="white"/>
<path d="M121.441 460.269L120.345 496.873C83.9669 496.873 43.2227 475.389 33.0881 441.491C24.4179 412.453 26.2485 376.622 26.2485 376.622C26.2485 376.622 94.6481 411.981 121.441 460.269Z" fill="white"/>
<path d="M142.123 318.99H117.161V497.036H142.123V318.99Z" fill="white"/>
<path d="M219.662 263.866C246.162 239.176 246.409 215.65 241.73 199.984C235.422 179.039 216.975 164.634 191.208 160.703C187.934 152.865 181.431 140.524 170.543 131.939C161.876 125.105 151.447 121.453 140.472 121.386C110.911 120.86 94.2836 144.264 87.6434 156.473C61.4241 157.876 40.7162 172.393 31.6542 196.132C23.4952 218.777 28.9978 241.691 46.7147 259.696C40.4058 285.343 46.9329 307.905 64.9757 322.131C82.9875 336.333 106.385 337.447 129.794 325.403C152 339.673 177.307 339.529 196.879 324.662C215.222 310.471 223.052 289.523 219.662 263.866V263.866ZM115.767 260.273C102.708 249.976 100.91 230.489 111.747 216.745C122.584 203.001 141.953 200.203 155.012 210.5C168.071 220.797 169.868 240.284 159.032 254.028C148.195 267.771 128.82 270.565 115.767 260.273V260.273Z" fill="white"/>
<path d="M412.713 482.892C412.713 482.892 434.844 495.154 446.008 494.792C500.129 493.058 514.955 442.626 562.842 357.249C506.051 374.529 497.777 387.543 445.565 432.215L412.713 482.892Z" fill="white"/>
<path d="M413.764 450.311L412.453 494.492C366.871 494.492 345.313 472.566 332.614 420.386C321.751 375.687 304.663 337.901 304.663 337.901C304.663 337.901 380.193 375.982 413.764 450.311V450.311Z" fill="white"/>
<path d="M446.008 274.137H409.041V494.792H446.008V274.137Z" fill="white"/>
<path d="M470.502 116.196C472.134 143.431 466.819 179.098 462.36 195.253C462.848 124.628 436.741 100.718 427.544 85.0045C427.544 85.0675 427.534 85.1306 427.524 85.1936C427.524 85.1306 427.514 85.0675 427.505 85.0045C418.308 100.718 392.201 124.628 392.689 195.253C388.23 179.098 382.915 143.431 384.547 116.196C384.547 116.196 342.903 144.077 342.903 217.35C342.903 278.944 380.785 321.42 427.505 321.42C427.515 321.389 427.515 321.373 427.524 321.341C427.524 321.373 427.534 321.389 427.544 321.42C474.264 321.42 512.146 278.96 512.146 217.35C512.146 144.077 470.502 116.196 470.502 116.196V116.196Z" fill="white"/>
</g>
<defs>
<clipPath id="clip0">
<path d="M0 0H580V580H0V0Z" fill="white"/>
</clipPath>
</defs>
</svg>
